Numix-GalliumOS/64/mimetypes/application-json.svg

<?xml version="1.0" encoding="UTF-8" standalone="no"?>
<svg
   xmlns:dc="http://purl.org/dc/elements/1.1/"
   xmlns:cc="http://creativecommons.org/ns#"
   xmlns:rdf="http://www.w3.org/1999/02/22-rdf-syntax-ns#"
   xmlns:svg="http://www.w3.org/2000/svg"
   xmlns="http://www.w3.org/2000/svg"
   xmlns:sodipodi="http://sodipodi.sourceforge.net/DTD/sodipodi-0.dtd"
   xmlns:inkscape="http://www.inkscape.org/namespaces/inkscape"
   width="64px"
   height="64px"
   viewBox="0 0 64 64"
   version="1.1"
   id="svg2"
   inkscape:version="0.91 r13725"
   sodipodi:docname="application-json-neu.svg">
  <metadata
     id="metadata19">
    <rdf:RDF>
      <cc:Work
         rdf:about="">
        <dc:format>image/svg+xml</dc:format>
        <dc:type
           rdf:resource="http://purl.org/dc/dcmitype/StillImage" />
        <dc:title></dc:title>
      </cc:Work>
    </rdf:RDF>
  </metadata>
  <defs
     id="defs17" />
  <sodipodi:namedview
     pagecolor="#ffffff"
     bordercolor="#666666"
     borderopacity="1"
     objecttolerance="10"
     gridtolerance="10"
     guidetolerance="10"
     inkscape:pageopacity="0"
     inkscape:pageshadow="2"
     inkscape:window-width="1366"
     inkscape:window-height="713"
     id="namedview15"
     showgrid="false"
     inkscape:zoom="1"
     inkscape:cx="32"
     inkscape:cy="32"
     inkscape:window-x="0"
     inkscape:window-y="28"
     inkscape:window-maximized="1"
     inkscape:current-layer="svg2" />
  <g
     id="surface1">
    <path
       style=" stroke:none;fill-rule:nonzero;fill:rgb(89.803922%,72.156863%,9.803922%);fill-opacity:1;"
       d="M 10.671875 0 C 9.296875 0 8 1.355469 8 2.789062 L 8 61.210938 C 8 62.566406 9.375 64 10.671875 64 L 53.328125 64 C 54.625 64 56 62.566406 56 61.210938 L 56 18 L 38 0 Z M 10.671875 0 "
       id="path5" />
    <path
       style=" stroke:none;fill-rule:nonzero;fill:rgb(0%,0%,0%);fill-opacity:0.196078;"
       d="M 42 18 L 56 32 L 56 18 Z M 42 18 "
       id="path7" />
    <path
       style=" stroke:none;fill-rule:nonzero;fill:rgb(100%,100%,100%);fill-opacity:0.392157;"
       d="M 38 0 L 55.984375 18 L 40.757812 18 C 39.410156 18 38 16.574219 38 15.226562 Z M 38 0 "
       id="path9" />
  </g>
  <g
     id="g3338"
     transform="matrix(4,0,0,3.9327729,0,-1.1260477)">
    <path
       sodipodi:nodetypes="csccccccc"
       inkscape:connector-curvature="0"
       id="path3364-3"
       d="m 8,6.3888885 c -1.8869431,0 -3.5,1.4074436 -3.5,3.3055558 C 4.5,11.347222 5.6651619,12.586806 6.9111111,13 6.0832852,12.430554 5.3235293,11.347222 5.3235293,10.107639 c 0,-1.4276426 1.029412,-2.4791669 2.2272103,-2.4791669 1.1183781,0 1.8861556,1.0689674 1.8904369,2.0659722 0,0.6998627 -0.5717376,1.2753087 -1.0294116,1.6527777 0.8235293,0 1.8529411,-0.684353 1.8529411,-2.065972 C 10.264706,8.0416664 9.2352942,6.3888885 8,6.3888885 Z"
       style="fill:#ffffff;fill-opacity:1;fill-rule:evenodd;stroke:none;stroke-width:1px;stroke-linecap:butt;stroke-linejoin:miter;stroke-opacity:1" />
    <path
       style="fill:#ffffff;fill-opacity:1;fill-rule:evenodd;stroke:none;stroke-width:1px;stroke-linecap:butt;stroke-linejoin:miter;stroke-opacity:1"
       d="m 8,13 c 1.8869427,0 3.5,-1.407444 3.5,-3.3055557 0,-1.6527779 -1.165162,-2.8923616 -2.4111111,-3.3055558 0.8278257,0.5694447 1.5875821,1.6527779 1.5875821,2.8923615 0,1.427642 -1.0294123,2.479166 -2.2272106,2.479166 -1.1183781,0 -1.8861556,-1.068967 -1.8904369,-2.0659718 0,-0.6998626 0.5717377,-1.275309 1.0294116,-1.6527778 -0.8235293,0 -1.8529409,0.6843532 -1.8529409,2.0659716 C 5.7352942,11.347222 6.7647058,13 8,13 Z"
       id="path4189-8"
       inkscape:connector-curvature="0"
       sodipodi:nodetypes="csccccccc" />
  </g>
</svg>

<svg xmlns="http://www.w3.org/2000/svg" viewBox="0 0 64 64">
 <g>
  <path d="m 10.672 0 c -1.375 0 -2.672 1.355 -2.672 2.789 l 0 58.42 c 0 1.355 1.375 2.789 2.672 2.789 l 42.656 0 c 1.297 0 2.672 -1.434 2.672 -2.789 l 0 -43.21 l -18 -18 m -27.328 0" style="fill:#e5b819;fill-opacity:1;stroke:none;fill-rule:nonzero"/>
  <path d="m 42 18 l 14 14 l 0 -14 m -14 0" style="fill:#000;fill-opacity:0.196;stroke:none;fill-rule:nonzero"/>
  <path d="m 38 0 l 17.984 18 l -15.227 0 c -1.348 0 -2.758 -1.426 -2.758 -2.773 m 0 -15.227" style="fill:#fff;fill-opacity:0.392;stroke:none;fill-rule:nonzero"/>
 </g>
 <g transform="matrix(4,0,0,3.9327729,0,-1.1260477)">
  <path d="m 8 6.389 c -1.887 0 -3.5 1.407 -3.5 3.306 c 0 1.653 1.165 2.892 2.411 3.306 -0.828 -0.569 -1.588 -1.653 -1.588 -2.892 c 0 -1.428 1.029 -2.479 2.227 -2.479 1.118 0 1.886 1.069 1.89 2.066 0 0.7 -0.572 1.275 -1.029 1.653 0.824 0 1.853 -0.684 1.853 -2.066 c 0 -1.24 -1.029 -2.892 -2.265 -2.892" style="fill:#fff;fill-opacity:1;stroke:none;fill-rule:evenodd"/>
  <path d="m 8 13 c 1.887 0 3.5 -1.407 3.5 -3.306 0 -1.653 -1.165 -2.892 -2.411 -3.306 0.828 0.569 1.588 1.653 1.588 2.892 0 1.428 -1.029 2.479 -2.227 2.479 -1.118 0 -1.886 -1.069 -1.89 -2.066 0 -0.7 0.572 -1.275 1.029 -1.653 -0.824 0 -1.853 0.684 -1.853 2.066 c 0 1.24 1.029 2.892 2.265 2.892" style="fill:#fff;fill-opacity:1;stroke:none;fill-rule:evenodd"/>
 </g>
</svg>
